svgs/wger.svg

<?xml version="1.0" encoding="UTF-8" standalone="no"?>
<!-- Created with Inkscape (http://www.inkscape.org/) -->

<svg
   width="192"
   height="192"
   viewBox="0 0 50.799999 50.799999"
   version="1.1"
   id="svg5"
   inkscape:version="1.2.1 (9c6d41e410, 2022-07-14)"
   xml:space="preserve"
   sodipodi:docname="wger.svg"
   xmlns:inkscape="http://www.inkscape.org/namespaces/inkscape"
   xmlns:sodipodi="http://sodipodi.sourceforge.net/DTD/sodipodi-0.dtd"
   xmlns="http://www.w3.org/2000/svg"
   xmlns:svg="http://www.w3.org/2000/svg"><sodipodi:namedview
     id="namedview7"
     pagecolor="#505050"
     bordercolor="#eeeeee"
     borderopacity="1"
     inkscape:pageshadow="0"
     inkscape:pageopacity="0"
     inkscape:pagecheckerboard="0"
     inkscape:document-units="px"
     showgrid="true"
     inkscape:lockguides="true"
     units="px"
     width="192px"
     showguides="true"
     inkscape:guide-bbox="true"
     guidecolor="#0000ff"
     guideopacity="0.49803922"
     inkscape:showpageshadow="0"
     inkscape:deskcolor="#505050"
     inkscape:zoom="5.0364583"
     inkscape:cx="45.667012"
     inkscape:cy="95.900725"
     inkscape:window-width="2560"
     inkscape:window-height="1372"
     inkscape:window-x="0"
     inkscape:window-y="0"
     inkscape:window-maximized="1"
     inkscape:current-layer="layer3"><inkscape:grid
       type="xygrid"
       id="grid824"
       empcolor="#ff82ff"
       empopacity="0.25098039"
       color="#00ffff"
       opacity="0.1254902"
       snapvisiblegridlinesonly="true"
       visible="false"
       enabled="true"
       dotted="false"
       originx="0"
       originy="0"
       units="px"
       spacingx="0.26458333"
       empspacing="4" /><sodipodi:guide
       position="4.2333333,46.566666"
       orientation="0,-1"
       id="guide1543"
       inkscape:locked="true" /><sodipodi:guide
       position="4.2333333,4.2333333"
       orientation="0,-1"
       id="guide1545"
       inkscape:locked="true" /><sodipodi:guide
       position="46.566666,46.566666"
       orientation="1,0"
       id="guide1578"
       inkscape:locked="true" /><sodipodi:guide
       position="4.2333333,46.566666"
       orientation="1,0"
       id="guide1580"
       inkscape:locked="true" /><sodipodi:guide
       position="8.4666666,42.333333"
       orientation="0,-1"
       id="guide1582"
       inkscape:locked="true" /><sodipodi:guide
       position="8.4666666,42.333333"
       orientation="1,0"
       id="guide1584"
       inkscape:locked="true" /><sodipodi:guide
       position="42.333333,42.333333"
       orientation="1,0"
       id="guide1586"
       inkscape:locked="true" /><sodipodi:guide
       position="42.333333,8.4666665"
       orientation="0,-1"
       id="guide1588"
       inkscape:locked="true" /><sodipodi:guide
       position="25.4,25.399999"
       orientation="1,0"
       id="guide18825"
       inkscape:locked="true" /><sodipodi:guide
       position="25.4,25.399999"
       orientation="0,-1"
       id="guide18827"
       inkscape:locked="true" /></sodipodi:namedview><defs
     id="defs2" /><g
     inkscape:groupmode="layer"
     id="layer3"
     inkscape:label="Layer 2"><path
       style="fill:none;stroke:#000000;stroke-width:3.175;stroke-linecap:round;stroke-linejoin:round;stroke-dasharray:none;stroke-opacity:1"
       d="m 20.6375,25.4 h 9.524999"
       id="path7105"
       sodipodi:nodetypes="cc" /><path
       style="fill:none;stroke:#000000;stroke-width:3.175;stroke-linecap:round;stroke-linejoin:round;stroke-dasharray:none;stroke-opacity:1"
       d="M 34.395834,17.462499 V 33.3375"
       id="path7107"
       sodipodi:nodetypes="cc" /><path
       style="fill:none;stroke:#000000;stroke-width:3.175;stroke-linecap:round;stroke-linejoin:round;stroke-dasharray:none;stroke-opacity:1"
       d="M 38.893751,18.785416 V 32.014583"
       id="path7107-7"
       sodipodi:nodetypes="cc" /><path
       style="fill:none;stroke:#000000;stroke-width:3.175;stroke-linecap:round;stroke-linejoin:round;stroke-dasharray:none;stroke-opacity:1"
       d="M 43.391668,19.843749 V 30.95625"
       id="path7107-7-5"
       sodipodi:nodetypes="cc" /><path
       style="fill:none;stroke:#000000;stroke-width:3.175;stroke-linecap:round;stroke-linejoin:miter;stroke-dasharray:none;stroke-opacity:1"
       d="M 44.979166,26.458333 V 24.341666"
       id="path7193"
       sodipodi:nodetypes="cc" /><path
       style="fill:none;stroke:#000000;stroke-width:3.175;stroke-linecap:round;stroke-linejoin:miter;stroke-dasharray:none;stroke-opacity:1"
       d="M 5.8208334,26.458333 V 24.341666"
       id="path7193-9"
       sodipodi:nodetypes="cc" /><path
       style="fill:none;stroke:#000000;stroke-width:3.175;stroke-linecap:round;stroke-linejoin:round;stroke-dasharray:none;stroke-opacity:1"
       d="M 16.404165,17.462499 V 33.3375"
       id="path7107-1"
       sodipodi:nodetypes="cc" /><path
       style="fill:none;stroke:#000000;stroke-width:3.175;stroke-linecap:round;stroke-linejoin:round;stroke-dasharray:none;stroke-opacity:1"
       d="M 11.906248,18.785416 V 32.014583"
       id="path7107-7-2"
       sodipodi:nodetypes="cc" /><path
       style="fill:none;stroke:#000000;stroke-width:3.175;stroke-linecap:round;stroke-linejoin:round;stroke-dasharray:none;stroke-opacity:1"
       d="M 7.4083325,19.84375 V 30.956251"
       id="path7107-7-5-7"
       sodipodi:nodetypes="cc" /></g></svg>

<svg width="192" height="192" viewBox="0 0 50.8 50.8" xml:space="preserve" xmlns="http://www.w3.org/2000/svg"><path style="fill:none;stroke:#000;stroke-width:3.175;stroke-linecap:round;stroke-linejoin:round;stroke-dasharray:none;stroke-opacity:1" d="M20.637 25.4h9.525M34.396 17.462v15.875M38.894 18.785v13.23M43.392 19.844v11.112"/><path style="fill:none;stroke:#000;stroke-width:3.175;stroke-linecap:round;stroke-linejoin:miter;stroke-dasharray:none;stroke-opacity:1" d="M44.98 26.458v-2.116M5.82 26.458v-2.116"/><path style="fill:none;stroke:#000;stroke-width:3.175;stroke-linecap:round;stroke-linejoin:round;stroke-dasharray:none;stroke-opacity:1" d="M16.404 17.462v15.875M11.906 18.785v13.23M7.408 19.844v11.112"/></svg>
